app/img/pencil/white.svg

<svg width="18" height="18" xmlns="http://www.w3.org/2000/svg"><path d="M1 16a1 1 0 0 0 1.256.967l3.982-.996a1 1 0 0 0 .469-.264l10-10a.997.997 0 0 0 0-1.414l-3-3a.997.997 0 0 0-1.414 0l-10 10 .001.001c-.127.127-.22.288-.265.468l-.995 3.981-.002.008-.002.007c-.019.077-.03.158-.03.242zM13 3.414L14.586 5 13 6.586 11.414 5 13 3.414zm-9.097 9.097L10 6.414 11.586 8l-6.097 6.097-2.114.529.528-2.115z" fill="#FFF" fill-rule="evenodd"/></svg>

<?xml version="1.0" encoding="UTF-8" standalone="no"?>
<svg width="18px" height="18px" viewBox="0 0 18 18" version="1.1" xmlns="http://www.w3.org/2000/svg" xmlns:xlink="http://www.w3.org/1999/xlink">
    <!-- Generator: Sketch 48.2 (47327) - http://www.bohemiancoding.com/sketch -->
    <title>icn / site-select / pencil / white</title>
    <desc>Created with Sketch.</desc>
    <defs></defs>
    <g id="Symbols" stroke="none" stroke-width="1" fill="none" fill-rule="evenodd">
        <g id="icn-/-site-select-/-pencil-/-white" fill="#FFFFFF">
            <path d="M1,16 C1,16.552 1.448,17 2,17 C2.089,17 2.175,16.988 2.256,16.967 L6.238,15.971 C6.418,15.927 6.58,15.834 6.707,15.707 L6.707,15.707 L16.707,5.707 C16.888,5.526 17,5.276 17,5 C17,4.724 16.888,4.474 16.707,4.293 L16.707,4.293 L13.707,1.293 C13.526,1.112 13.276,1 13,1 C12.724,1 12.474,1.112 12.293,1.293 L12.293,1.293 L2.293,11.293 L2.294,11.294 C2.167,11.421 2.074,11.582 2.029,11.762 L1.034,15.743 C1.033,15.746 1.033,15.748 1.032,15.751 L1.03,15.758 C1.011,15.835 1,15.916 1,16 L1,16 Z M13,3.414 L14.586,5 L13,6.586 L11.414,5 L13,3.414 L13,3.414 Z M3.903,12.511 L10,6.414 L11.586,8 L5.489,14.097 L3.375,14.626 L3.903,12.511 L3.903,12.511 Z" id="Shape"></path>
        </g>
    </g>
</svg>
